src/icons/package-uninstall.svg

<?xml version="1.0" encoding="UTF-8"?>
<svg xmlns="http://www.w3.org/2000/svg" xmlns:xlink="http://www.w3.org/1999/xlink" width="33.507999" height="32" viewBox="0 0 33.507999 32" version="1.1">
<g id="surface1">
<path style=" stroke:none;fill-rule:nonzero;fill:rgb(25.098041%,25.098041%,25.490198%);fill-opacity:1;" d="M 20.109375 27.394531 L 13.394531 27.394531 L 11.980469 30.324219 L 10.050781 30.324219 L 10.050781 32 L 23.453125 32 L 23.453125 30.324219 L 21.527344 30.324219 Z M 31.796875 4.335938 L 30.292969 4.335938 L 30.292969 6.007812 L 31.796875 6.007812 C 31.816406 6.007812 31.832031 6.023438 31.832031 6.042969 L 31.832031 24.441406 C 31.832031 24.460938 31.816406 24.476562 31.796875 24.476562 L 1.707031 24.476562 C 1.691406 24.476562 1.675781 24.460938 1.675781 24.441406 L 1.675781 6.042969 C 1.675781 6.023438 1.691406 6.007812 1.707031 6.007812 L 22.242188 6.007812 L 22.242188 4.335938 L 1.707031 4.335938 C 0.765625 4.335938 0 5.101562 0 6.042969 L 0 24.441406 C 0 25.382812 0.761719 26.148438 1.707031 26.152344 L 31.796875 26.152344 C 32.742188 26.152344 33.507812 25.386719 33.507812 24.441406 L 33.507812 6.042969 C 33.503906 5.097656 32.742188 4.335938 31.796875 4.335938 M 10.308594 18.433594 L 16.335938 21.914062 L 16.335938 16.015625 L 10.308594 12.539062 Z M 17.171875 21.914062 L 23.195312 18.433594 L 23.195312 12.539062 L 17.171875 16.015625 Z M 10.730469 11.8125 L 16.753906 15.292969 L 22.777344 11.8125 L 16.753906 8.335938 Z M 23.375 4.335938 L 23.558594 6.007812 L 23.664062 6.988281 L 23.796875 8.214844 C 23.824219 8.472656 24.039062 8.667969 24.296875 8.667969 L 28.550781 8.667969 C 28.808594 8.667969 29.027344 8.472656 29.054688 8.214844 L 29.183594 6.988281 L 29.289062 6.007812 L 29.472656 4.335938 L 29.5625 3.503906 L 29.625 2.929688 L 23.226562 2.929688 L 23.289062 3.503906 Z M 25.058594 7.699219 C 25.050781 7.699219 25.042969 7.703125 25.03125 7.703125 C 24.871094 7.699219 24.742188 7.578125 24.726562 7.421875 L 24.683594 6.992188 L 24.589844 6.011719 L 24.429688 4.335938 L 24.398438 3.992188 C 24.382812 3.824219 24.503906 3.671875 24.671875 3.65625 C 24.84375 3.640625 24.996094 3.761719 25.011719 3.933594 L 25.050781 4.335938 L 25.210938 6.011719 L 25.304688 6.992188 L 25.339844 7.363281 C 25.355469 7.535156 25.230469 7.683594 25.058594 7.699219 M 26.726562 7.390625 C 26.726562 7.472656 26.695312 7.550781 26.636719 7.609375 C 26.578125 7.667969 26.5 7.703125 26.417969 7.703125 C 26.335938 7.703125 26.257812 7.667969 26.199219 7.609375 C 26.140625 7.550781 26.109375 7.472656 26.109375 7.390625 L 26.109375 3.964844 C 26.109375 3.882812 26.140625 3.804688 26.199219 3.746094 C 26.257812 3.683594 26.335938 3.652344 26.417969 3.652344 C 26.5 3.652344 26.578125 3.683594 26.636719 3.746094 C 26.695312 3.804688 26.726562 3.882812 26.726562 3.964844 Z M 28.261719 6.007812 L 28.167969 6.988281 L 28.125 7.421875 C 28.109375 7.578125 27.976562 7.699219 27.816406 7.699219 L 27.789062 7.699219 C 27.707031 7.691406 27.632812 7.652344 27.578125 7.585938 C 27.527344 7.523438 27.503906 7.441406 27.511719 7.359375 L 27.546875 6.988281 L 27.640625 6.007812 L 27.800781 4.335938 L 27.839844 3.933594 C 27.855469 3.765625 28.003906 3.636719 28.175781 3.652344 C 28.34375 3.671875 28.46875 3.820312 28.453125 3.992188 L 28.417969 4.335938 Z M 29.625 1.574219 L 28.214844 1.574219 C 28.097656 0.675781 27.332031 0 26.425781 0 C 25.507812 0 24.75 0.6875 24.636719 1.574219 L 23.226562 1.574219 L 23.226562 2.328125 L 29.625 2.328125 Z M 25.472656 1.574219 C 25.582031 1.132812 25.972656 0.824219 26.425781 0.824219 C 26.886719 0.824219 27.273438 1.144531 27.378906 1.574219 Z M 25.472656 1.574219 "/>
</g>
</svg>

<svg role="img" viewBox="0 0 33.508 32" xmlns="http://www.w3.org/2000/svg"><path d="M20.11 27.395h-6.715l-1.415 2.93h-1.93V32h13.403v-1.676h-1.926ZM31.797 4.336h-1.504v1.672h1.504c.02 0 .035.015.035.035v18.398c0 .02-.016.036-.035.036H1.707c-.016 0-.031-.016-.031-.036V6.043c0-.02.015-.035.031-.035h20.535V4.336H1.707A1.71 1.71 0 0 0 0 6.043v18.398a1.71 1.71 0 0 0 1.707 1.711h30.09a1.71 1.71 0 0 0 1.71-1.71v-18.4a1.71 1.71 0 0 0-1.71-1.707M10.309 18.434l6.027 3.48v-5.898l-6.027-3.477Zm6.863 3.48 6.023-3.48v-5.895l-6.023 3.477ZM10.73 11.813l6.024 3.48 6.023-3.48-6.023-3.477Zm12.645-7.477.184 1.672.105.98.133 1.227a.504.504 0 0 0 .5.453h4.254a.508.508 0 0 0 .504-.453l.129-1.227.105-.98.184-1.672.09-.832.062-.574h-6.398l.062.574Zm1.684 3.363c-.008 0-.016.004-.028.004a.309.309 0 0 1-.304-.281l-.043-.43-.094-.98-.16-1.676-.032-.344a.307.307 0 0 1 .274-.336.311.311 0 0 1 .34.278l.039.402.16 1.676.094.98.035.371a.31.31 0 0 1-.281.336m1.668-.308a.31.31 0 0 1-.309.312.31.31 0 0 1-.309-.312V3.965a.31.31 0 0 1 .309-.313.31.31 0 0 1 .309.313Zm1.535-1.383-.094.98-.043.434a.31.31 0 0 1-.309.277h-.027a.309.309 0 0 1-.277-.34l.035-.37.094-.981.16-1.672.039-.402a.313.313 0 0 1 .336-.282c.168.02.293.168.277.34l-.035.344Zm1.363-4.434h-1.41A1.806 1.806 0 0 0 26.425 0c-.917 0-1.675.688-1.788 1.574h-1.41v.754h6.398Zm-4.152 0a.984.984 0 0 1 .953-.75c.46 0 .847.32.953.75Zm0 0" style="stroke:none;fill-rule:nonzero;fill:rgb(25.098041%,25.098041%,25.490198%);fill-opacity:1"/></svg>
